X:3
T:Polkas 3 - Bonny Kate
T: Le Petit Coin
L:1/16
K: Gmaj
|:Bc|"G"d2e2 d2Bc|d2e2d4|"C"gfed cBAG|B2A2 "D"A2Bc|
"Em7/G"d2e2 d2Bc|d2e2 d4|"C"gdcB "D"AGAB|"G"G2d2 G2:|
|:gf|"C"e2d2 BcdB|"Am"e2A2 ABcA|"G/B"d2G2 G2AB|"Am"cBcd "G/B"edgf|
"C"e2d2 BcdB|"Am7"e2A2 ABcA|"D"d2G2 G2AB|cdef "Em"g2:|
T: Bonny Kate
K: G
d2e2 f2 |"G"g3f g3f | "G"g2d2 d2B2 | "C"cde2 "D"d3c | "G"B2G2 G3A |
"G"B2G2 G2AB | "Am"c2A2 "D"A2c2 | "G"Bcd2 "C"c2B2 |1 "D"A2 :|2 "D"A8 ||
|:"G"B2G2 G2AB | "Am"c2A2 "G/B"d2B2 | "C"e2c2 c2e2 | "D"f4 d2ef |
"Em"g3f "D"g2fe | "C"d2ef "G/B"g2B2 | "C"cde2 "D"d3c |1 "G"B2G2 G4 :|2 "G"B2A2 G4 :|
